img/icons/user/infoPanel/phone.svg

<svg width="24" height="24" viewBox="0 0 24 24" fill="none" xmlns="http://www.w3.org/2000/svg">
<path d="M10.3353 6.83815C10.1328 6.33193 9.64254 6 9.09733 6H7.26316C6.56554 6 6 6.56556 6 7.26318C6 13.193 10.8072 18 16.737 18C17.4346 18 18 17.4345 18 16.7369L17.9999 14.9027C17.9999 14.3575 17.6679 13.8672 17.1617 13.6648L15.4048 12.9619C14.95 12.78 14.4324 12.862 14.0561 13.1755L13.6021 13.5538C13.0723 13.9953 12.2933 13.96 11.8057 13.4724L10.5276 12.1943C10.04 11.7067 10.0048 10.9277 10.4463 10.3979L10.8245 9.94398C11.1381 9.56775 11.22 9.04995 11.0381 8.59524L10.3353 6.83815Z" stroke="#8C8D92" stroke-width="2" stroke-linecap="round" stroke-linejoin="round"/>
</svg>

<svg width="24" height="24" fill="none" xmlns="http://www.w3.org/2000/svg"><path d="M10.335 6.838A1.333 1.333 0 0 0 9.097 6H7.263C6.566 6 6 6.566 6 7.263 6 13.193 10.807 18 16.737 18c.698 0 1.263-.566 1.263-1.263v-1.834c0-.546-.332-1.036-.838-1.238l-1.757-.703a1.333 1.333 0 0 0-1.349.213l-.454.379a1.333 1.333 0 0 1-1.796-.082l-1.278-1.278a1.333 1.333 0 0 1-.082-1.796l.379-.454c.313-.376.395-.894.213-1.349l-.703-1.757Z" stroke="#8C8D92" stroke-width="2" stroke-linecap="round" stroke-linejoin="round"/></svg>
